svg/mailTimeline.svg

<svg width="280" height="280" viewBox="0 0 280 280" fill="none" xmlns="http://www.w3.org/2000/svg">
<path fill-rule="evenodd" clip-rule="evenodd" d="M60.314 48.4429C57.6229 48.4429 55.4427 50.6208 55.4427 53.3131V174.373C55.4427 177.064 57.6269 179.243 60.314 179.243H219.756C222.447 179.243 224.627 177.065 224.627 174.373V53.3131C224.627 50.6218 222.443 48.4429 219.756 48.4429H60.314ZM216.658 171.27H63.4115V56.416H216.658V171.27Z" fill="black"/>
<path d="M64.647 65.321C62.9491 63.9204 60.4379 64.1622 59.0381 65.861C57.6383 67.5598 57.8799 70.0723 59.5778 71.4729L137.5 135.752C138.972 136.967 141.098 136.967 142.569 135.752L220.492 71.4729C222.19 70.0723 222.431 67.5598 221.032 65.861C219.632 64.1622 217.121 63.9204 215.423 65.321L140.035 127.51L64.647 65.321Z" fill="black"/>
<path d="M136.467 254.077C138.244 255.974 141.256 255.974 143.033 254.077L160.444 235.5H235.5C237.985 235.5 240 233.485 240 231C240 228.515 237.985 226.5 235.5 226.5H158.494C157.25 226.5 156.061 227.015 155.21 227.923L139.75 244.419L124.29 227.923C123.439 227.015 122.25 226.5 121.006 226.5H44C41.5147 226.5 39.5 228.515 39.5 231C39.5 233.485 41.5147 235.5 44 235.5H119.056L136.467 254.077Z" fill="#C4C4C4"/>
</svg>

<svg width="280" height="280" viewBox="0 0 280 280" xmlns="http://www.w3.org/2000/svg">
    <g fill-rule="nonzero" fill="#000">
        <path d="M63.411 171.27h153.247V56.416H63.411V171.27zM55.443 53.313c0-2.692 2.18-4.87 4.871-4.87h159.442a4.872 4.872 0 0 1 4.871 4.87v121.06c0 2.692-2.18 4.87-4.871 4.87H60.314a4.872 4.872 0 0 1-4.871-4.87V53.313z"/>
        <path d="M64.647 65.321a3.983 3.983 0 0 0-5.609.54 3.988 3.988 0 0 0 .54 5.612l77.922 64.28a3.983 3.983 0 0 0 5.07 0l77.922-64.28a3.988 3.988 0 0 0 .54-5.612 3.983 3.983 0 0 0-5.61-.54l-75.387 62.189L64.647 65.32z"/>
        <g>
            <path d="M136.467 254.077a4.5 4.5 0 0 0 6.566 0l17.41-18.577H235.5a4.5 4.5 0 0 0 0-9h-77.006a4.5 4.5 0 0 0-3.284 1.423l-15.46 16.496-15.46-16.496a4.5 4.5 0 0 0-3.284-1.423H44a4.5 4.5 0 0 0 0 9h75.056l17.41 18.577z"/>
        </g>
    </g>
</svg>
